src/topics/icons/perl.svg

<svg height="256" preserveAspectRatio="xMidYMid" viewBox="0 0 256 256" width="256" xmlns="http://www.w3.org/2000/svg"><path d="m255.759398 127.759398c0 70.559279-57.20012 127.759399-127.759398 127.759399-70.5597594 0-127.7593985-57.20012-127.7593985-127.759399 0-70.5597589 57.1996391-127.759398 127.7593985-127.759398 70.559278 0 127.759398 57.1996391 127.759398 127.759398" fill="#3a3c5b"/><g fill="#fff"><path d="m217.000902 137.208782c-4.304842-27.162466-32.802646-44.7576542-54.023699-58.0277895-9.270376-5.7965714-24.299789-13.3480902-26.24385-25.5398496-.802646-5.0381955-.773293-10.2433685-.941714-15.3306467-.066406-1.9974736-.097203-4.0064962-.275729-5.9991579-.230978-2.5705864-2.847278.5976542-4.281263-1.6457142-3.552722-5.5540452-2.185143 1.6832481-1.83579 4.6036691.821895 6.869173 1.787188 13.7181354 1.73185 20.6517895-.106346 13.2513684-2.241444 25.9363609-5.545384 38.7036391-7.738225 29.8990672-13.842285 60.5329322-6.187308 91.1292632 1.586045 6.339368 3.650887 12.593564 6.363429 18.54412.81997 1.799218 2.389654 6.821053 4.646015 7.422557 8.125594 2.1683 14.270075 2.79627 20.759579 8.840661 4.029112 3.752903 7.051067 1.702978 11.816902-.20403 14.43609-5.777323 26.946887-13.047819 37.176301-24.945082 14.379308-16.72373 20.311579-36.301474 16.840661-58.203429m-15.268571 27.349654c-1.280963 11.17209-8.288722 21.179669-15.444692 29.477053-5.187368 6.014556-12.205714 13.82015-19.896782 16.558676-2.768842.985985.506707-4.553142.912842-5.163789 2.380993-3.58015 5.314887-6.738767 8.038978-10.051368 4.030556-4.898166 7.521203-10.03982 9.88006-15.972091 7.83206-19.68794 6.052571-43.55224-5.538647-61.288421-6.310496-9.656782-14.971669-17.818947-23.702616-25.2650825-4.218226-3.5979549-8.486497-6.9995789-12.036331-11.3049022-.820932-.9941654-8.070737-10.4849324-5.815338-11.8881203.728541-.4537745 16.573593 16.2136541 18.296781 17.514827 6.552061 4.9472482 13.290828 9.521564 19.357354 15.092451 8.210286 7.542857 16.642406 15.968241 21.346165 26.226526 5.155128 11.23994 5.993865 23.910978 4.602226 36.064241"/><path d="m123.294316 3.44348872c2.378586 1.58604511 2.906466 10.83572928 2.906466 19.29239098 0 8.4585865.793023 44.9299248-1.849744 54.7089323-2.642286 9.7790075-8.721324 20.6152181-15.328722 30.129564-6.606918 9.514346-14.271519 29.600241-14.0073386 42.021534.2636993 12.422737 7.4004206 32.772331 12.9506166 41.229955 5.570887 8.489383 15.02797 20.321203 12.949654 22.993804-3.700451 4.757173-18.76403-11.629233-26.6928119-21.143098-7.9292632-9.514827-15.8580451-28.809142-16.1217444-43.872721-.2646616-15.065023 8.1924812-29.072842 14.2715188-37.529023 6.0790376-8.457624 17.9714885-22.9938044 21.1430975-29.6007217 3.171128-6.6073985 6.607399-13.7426767 7.664602-22.9938045 1.057203-9.2501655 0-42.2871579 0-42.2871579s-.264662-14.53569929 2.114406-12.94965418"/><path d="m116.951098 19.036391c2.378105 1.057203 2.642767 3.9641504 2.642767 6.8720601 0 2.9069474-.793023 14.8003609-1.585564 26.4291128-.793504 11.6287519-10.042707 21.4077594-16.914767 28.2788572-6.8710979 6.8710977-26.6932934 28.2793379-34.0937145 38.8513679-7.3999398 10.571549-11.0878797 24.496602-10.3068872 36.20764.7925414 11.892932 3.6994888 23.521684 14.8003609 35.943939 11.100391 12.421294 18.7645113 18.23567 24.578406 21.143579 5.8148568 2.905504 11.6297148 5.020391 10.3078498 7.664121-1.321865 2.642285-6.8720603.79206-12.9506167-1.321384-6.0785564-2.115368-26.6932932-10.571067-38.5867067-24.050526-11.8924512-13.47994-17.9710076-31.451429-17.4426467-48.630857.5278797-17.178466 5.2860151-24.314226 13.214797-35.414617 7.9283008-11.0999096 29.8644211-27.4853532 36.736-31.7141652 6.8720602-4.228812 16.1212631-11.3645714 20.6152181-17.1789474 4.492511-5.8148571 6.871098-10.5729925 6.606436-18.5012932-.26418-7.9283008.529323-15.0645414.264662-17.7068271-.264662-2.6427669-.264662-7.9283007 2.114406-6.8720601"/><path d="m117.613233 226.202947c1.074526-.043308.395549 4.613775-1.502316 6.924993-1.897864 2.310255-5.157052 3.699489-5.553082 2.770286-.397955-.930166 2.353563-1.464782 4.373173-3.712963 1.854556-2.064361 1.36421-5.928902 2.682225-5.982316"/><path d="m139.002707 226.080722c-1.074045-.044752-.395068 4.612331 1.502797 6.922586 1.897864 2.310256 5.157052 3.700933 5.552601 2.771248.397474-.930165-2.353564-1.4643-4.373173-3.712962-1.854556-2.062917-1.363729-5.929383-2.682225-5.980872"/><path d="m129.494617 231.132872c0 4.067609.207398 7.36385-.680422 7.36385-1.093293 0-.680902-3.296241-.680902-7.36385 0-4.067128-.371007-7.364812.680902-7.364812.969143 0 .680422 3.297684.680422 7.364812"/></g></svg>

<?xml version="1.0" encoding="UTF-8" standalone="no"?>
<svg width="256px" height="256px" viewBox="0 0 256 256" version="1.1" xmlns="http://www.w3.org/2000/svg" xmlns:xlink="http://www.w3.org/1999/xlink" preserveAspectRatio="xMidYMid">
	<g>
		<path d="M255.759398,127.759398 C255.759398,198.318677 198.559278,255.518797 128,255.518797 C57.4402406,255.518797 0.240601504,198.318677 0.240601504,127.759398 C0.240601504,57.1996391 57.4402406,0 128,0 C198.559278,0 255.759398,57.1996391 255.759398,127.759398" fill="#3A3C5B"></path>
		<path d="M217.000902,137.208782 C212.69606,110.046316 184.198256,92.4511278 162.977203,79.1809925 C153.706827,73.3844211 138.677414,65.8329023 136.733353,53.6411429 C135.930707,48.6029474 135.96006,43.3977744 135.791639,38.3104962 C135.725233,36.3130226 135.694436,34.304 135.51591,32.3113383 C135.284932,29.7407519 132.668632,32.9089925 131.234647,30.6656241 C127.681925,25.1115789 129.049504,32.3488722 129.398857,35.2692932 C130.220752,42.1384662 131.186045,48.9874286 131.130707,55.9210827 C131.024361,69.1724511 128.889263,81.8574436 125.585323,94.6247218 C117.847098,124.523789 111.743038,155.157654 119.398015,185.753985 C120.98406,192.093353 123.048902,198.347549 125.761444,204.298105 C126.581414,206.097323 128.151098,211.119158 130.407459,211.720662 C138.533053,213.888962 144.677534,214.516932 151.167038,220.561323 C155.19615,224.314226 158.218105,222.264301 162.98394,220.357293 C177.42003,214.57997 189.930827,207.309474 200.160241,195.412211 C214.539549,178.688481 220.47182,159.110737 217.000902,137.208782 M201.732331,164.558436 C200.451368,175.730526 193.443609,185.738105 186.287639,194.035489 C181.100271,200.050045 174.081925,207.855639 166.390857,210.594165 C163.622015,211.58015 166.897564,206.041023 167.303699,205.430376 C169.684692,201.850226 172.618586,198.691609 175.342677,195.379008 C179.373233,190.480842 182.86388,185.339188 185.222737,179.406917 C193.054797,159.718977 191.275308,135.854677 179.68409,118.118496 C173.373594,108.461714 164.712421,100.299549 155.981474,92.8534135 C151.763248,89.2554586 147.494977,85.8538346 143.945143,81.5485113 C143.124211,80.5543459 135.874406,71.0635789 138.129805,69.660391 C138.858346,69.2066165 154.703398,85.8740451 156.426586,87.175218 C162.978647,92.1224662 169.717414,96.696782 175.78394,102.267669 C183.994226,109.810526 192.426346,118.23591 197.130105,128.494195 C202.285233,139.734135 203.12397,152.405173 201.732331,164.558436" fill="#FFFFFF"></path>
		<path d="M123.294316,3.44348872 C125.672902,5.02953383 126.200782,14.279218 126.200782,22.7358797 C126.200782,31.1944662 126.993805,67.6658045 124.351038,77.444812 C121.708752,87.2238195 115.629714,98.0600301 109.022316,107.574376 C102.415398,117.088722 94.750797,137.174617 95.0149774,149.59591 C95.2786767,162.018647 102.415398,182.368241 107.965594,190.825865 C113.536481,199.315248 122.993564,211.147068 120.915248,213.819669 C117.214797,218.576842 102.151218,202.190436 94.2224361,192.676571 C86.2931729,183.161744 78.364391,163.867429 78.1006917,148.80385 C77.8360301,133.738827 86.2931729,119.731008 92.3722105,111.274827 C98.4512481,102.817203 110.343699,88.2810226 113.515308,81.6741053 C116.686436,75.0667068 120.122707,67.9314286 121.17991,58.6803008 C122.237113,49.4301353 121.17991,16.3931429 121.17991,16.3931429 C121.17991,16.3931429 120.915248,1.85744361 123.294316,3.44348872" fill="#FFFFFF"></path>
		<path d="M116.951098,19.036391 C119.329203,20.093594 119.593865,23.0005414 119.593865,25.9084511 C119.593865,28.8153985 118.800842,40.708812 118.008301,52.3375639 C117.214797,63.9663158 107.965594,73.7453233 101.093534,80.6164211 C94.2224361,87.4875188 74.4002406,108.895759 66.9998195,119.467789 C59.5998797,130.039338 55.9119398,143.964391 56.6929323,155.675429 C57.4854737,167.568361 60.3924211,179.197113 71.4932932,191.619368 C82.5936842,204.040662 90.2578045,209.855038 96.0716992,212.762947 C101.886556,215.668451 107.701414,217.783338 106.379549,220.427068 C105.057684,223.069353 99.5074887,221.219128 93.4289323,219.105684 C87.3503759,216.990316 66.7356391,208.534617 54.8422256,195.055158 C42.9497744,181.575218 36.871218,163.603729 37.3995789,146.424301 C37.9274586,129.245835 42.685594,122.110075 50.6143759,111.009684 C58.5426767,99.9097744 80.478797,83.5243308 87.3503759,79.2955188 C94.2224361,75.0667068 103.471639,67.9309474 107.965594,62.1165714 C112.458105,56.3017143 114.836692,51.5435789 114.57203,43.6152782 C114.30785,35.6869774 115.101353,28.5507368 114.836692,25.9084511 C114.57203,23.2656842 114.57203,17.9801504 116.951098,19.036391" fill="#FFFFFF"></path>
		<path d="M117.613233,226.202947 C118.687759,226.159639 118.008782,230.816722 116.110917,233.12794 C114.213053,235.438195 110.953865,236.827429 110.557835,235.898226 C110.15988,234.96806 112.911398,234.433444 114.931008,232.185263 C116.785564,230.120902 116.295218,226.256361 117.613233,226.202947" fill="#FFFFFF"></path>
		<path d="M139.002707,226.080722 C137.928662,226.03597 138.607639,230.693053 140.505504,233.003308 C142.403368,235.313564 145.662556,236.704241 146.058105,235.774556 C146.455579,234.844391 143.704541,234.310256 141.684932,232.061594 C139.830376,229.998677 140.321203,226.132211 139.002707,226.080722" fill="#FFFFFF"></path>
		<path d="M129.494617,231.132872 C129.494617,235.200481 129.702015,238.496722 128.814195,238.496722 C127.720902,238.496722 128.133293,235.200481 128.133293,231.132872 C128.133293,227.065744 127.762286,223.76806 128.814195,223.76806 C129.783338,223.76806 129.494617,227.065744 129.494617,231.132872" fill="#FFFFFF"></path>
	</g>
</svg>
